public/images/unichain.svg

<svg fill="none" height="87" viewBox="0 0 87 87" width="87" xmlns="http://www.w3.org/2000/svg"><rect fill="#ff66e0" height="87" rx="12" width="87"/><path d="m71.0001 43.4673c-15.177 0-27.4673-12.3027-27.4673-27.4673h-1.0654v27.4673h-27.4674v1.0655c15.1771 0 27.4674 12.3027 27.4674 27.4672h1.0654v-27.4672h27.4673z" fill="#fff"/></svg>

<svg width="87" height="87" viewBox="0 0 87 87" fill="none" xmlns="http://www.w3.org/2000/svg">
<rect width="87" height="87" rx="12" fill="#FF66E0"/>
<path d="M71.0001 43.4673C55.8231 43.4673 43.5328 31.1646 43.5328 16H42.4674V43.4673H15V44.5328C30.1771 44.5328 42.4674 56.8355 42.4674 72H43.5328V44.5328H71.0001V43.4673Z" fill="white"/>
</svg>
